X:1
T:Title
%%score ( 1 2 ) 3
L:1/8
Q:1/4=150
M:3/4
K:Bb
V:1 treble nm="Grand Piano, Soprano"
V:2 treble 
V:3 bass nm="Choir Pad, Bangalore, Hart P. Danks"
V:1
 F2 [DB]4 | F2 [Ec]4 | [EF]2 F2 d2 | [DB]2 [DF]4 | [DF]2 [EG]4 | [EG]2 [FG]4 | [FG]2 [EG]4- | %7
w: By~Hart~Pease~Danks,~1902 *|||||||
 [EG]6 | [EG]2 [EA]4 | [EA]2 [EG]4 | [EF]2 F2 B2 | [Ec]2 [Fd]4 | [Fd]2 [Fc]4 | [Fc]2 [=Ec]4 | %14
w: |||||||
 [=Ec]2 [_Ec]4- | [Ec]6 | [EF]2 [DF]4 | [DF]2 [_D=E]4 | [_D=E]2 F2 d2 | [DB]2 [DF]4 | [DF]2 [EG]4 | %21
w: |||||||
 [EG]2 [FG]4 | [FG]2 [EG]4- | [EG]6 | [EG]2 [EA]4 | [EA]2 [EG]4 | [EF]2 [DF]4 | [DB]2 [EB]4 | %28
w: |||||||
 [=Ec]2 [Fd]4 | [DF]2 [Ec]2 [Fd]2 | [Ec]2 [DB]4- | [DB]6- | [DB]2 z2 z2 |] %33
w: |||||
V:2
 x6 | x6 | z2 D4 | x6 | x6 | x6 | x6 | x6 | x6 | x6 | z2 D4 | x6 | x6 | x6 | x6 | x6 | x6 | x6 | %18
 z2 =D4 | x6 | x6 | x6 | x6 | x6 | x6 | x6 | x6 | x6 | x6 | x6 | x6 | x6 | x6 |] %33
V:3
 F,2 [B,,F,]4 | [D,B,]2 [F,A,]4 | [F,A,]2 [B,,B,]4 | [B,,B,]2 [B,,B,]4 | [B,,B,]2 [E,B,]4 | %5
 [E,B,]2 [D,=B,]4 | [D,=B,]2 [C,C]4- | [C,C]6 | [C,C]2 [F,C]4 | [F,C]2 [F,B,]4 | [F,A,]2 [B,,B,]4 | %11
 [B,,B,]2 [B,,B,]4 | [=B,,_A,]2 [C,=A,]4 | [C,A,]2 [C,G,]4 | [C,B,]2 [F,A,]4- | [F,A,]6 | %16
 [F,A,]2 [B,,B,]4 | [B,,F,]2 [B,,G,]4 | [B,,G,]2 [B,,F,]4 | [B,,F,]2 [B,,F,]4 | [B,,B,]2 [E,B,]4 | %21
 [E,B,]2 [D,=B,]4 | [D,=B,]2 [C,C]4- | [C,C]6 | [C,C]2 [F,C]4 | [^F,C]2 [G,C]4 | [A,C]2 B,4 | %27
 [_A,B,]2 [G,B,]4 | [^F,B,]2 [=F,B,]4 | [F,B,]2 [F,A,]4 | F,2 [B,,F,]4- | [B,,F,]6- | %32
 [B,,F,]2 z2 z2 |] %33

